assets/icons/package/filled.svg

<?xml version="1.0" encoding="UTF-8" standalone="no"?>
<svg viewBox="0 0 24 24" height="24" id="svg7384" version="1.1" width="24" sodipodi:docname="package-filled.svg" inkscape:version="1.1 (ce6663b3b7, 2021-05-25)"
   xmlns:inkscape="http://www.inkscape.org/namespaces/inkscape"
   xmlns:sodipodi="http://sodipodi.sourceforge.net/DTD/sodipodi-0.dtd"
   xmlns="http://www.w3.org/2000/svg"
   xmlns:svg="http://www.w3.org/2000/svg"
   xmlns:rdf="http://www.w3.org/1999/02/22-rdf-syntax-ns#"
   xmlns:cc="http://creativecommons.org/ns#"
   xmlns:dc="http://purl.org/dc/elements/1.1/">
   <sodipodi:namedview id="namedview25" pagecolor="#ffffff" bordercolor="#666666" borderopacity="1.0" inkscape:pageshadow="2" inkscape:pageopacity="0.0" inkscape:pagecheckerboard="0" showgrid="true" inkscape:zoom="19.79899" inkscape:cx="21.238457" inkscape:cy="10.278302" inkscape:window-width="1920" inkscape:window-height="1016" inkscape:window-x="0" inkscape:window-y="27" inkscape:window-maximized="1" inkscape:current-layer="svg7384" inkscape:snap-page="true">
      <inkscape:grid type="xygrid" id="grid1209" />
   </sodipodi:namedview>
   <metadata id="metadata20854">
      <rdf:RDF>
         <cc:Work rdf:about="">
            <dc:format>image/svg+xml</dc:format>
            <dc:type rdf:resource="http://purl.org/dc/dcmitype/StillImage" />
         </cc:Work>
      </rdf:RDF>
   </metadata>
   <defs id="defs7386">
      <linearGradient id="linearGradient5606" inkscape:swatch="solid">
         <stop id="stop5608" offset="0" style="stop-color:#000000;stop-opacity:1;" />
      </linearGradient>
      <linearGradient id="linearGradient4526" inkscape:swatch="solid">
         <stop id="stop4528" offset="0" style="stop-color:#ffffff;stop-opacity:1;" />
      </linearGradient>
      <linearGradient id="linearGradient3600-4" inkscape:swatch="gradient">
         <stop id="stop3602-7" offset="0" style="stop-color:#f4f4f4;stop-opacity:1" />
         <stop id="stop3604-6" offset="1" style="stop-color:#dbdbdb;stop-opacity:1" />
      </linearGradient>
   </defs>
   <path id="path866" style="color:#000000;fill:#808080;fill-opacity:1;-inkscape-stroke:none" d="M 6.7871094 3 C 6.1101644 3.00559 5.5365077 3.048153 5.0273438 3.3027344 C 4.6879016 3.4724556 4.3973387 3.765168 4.2304688 4.140625 C 4.063599 4.516082 4 4.9583339 4 5.5 L 4 18.5 C 4 19.041666 4.063599 19.483918 4.2304688 19.859375 C 4.3973388 20.234832 4.6879015 20.527544 5.0273438 20.697266 C 5.7062285 21.036708 6.500001 21 7.5 21 L 15.5 21 C 16.499999 21 17.293771 21.03671 17.972656 20.697266 C 18.312099 20.527544 18.602661 20.234832 18.769531 19.859375 C 18.936401 19.483918 19 19.041666 19 18.5 L 19 5.5 C 19 4.9583339 18.9364 4.516082 18.769531 4.140625 C 18.602661 3.765168 18.312099 3.4724556 17.972656 3.3027344 C 17.293771 2.963292 16.499999 3 15.5 3 L 7.5 3 C 7.25 3 7.0127583 2.99814 6.7871094 3 z M 11 4 L 11.5 4 L 12 4 L 12 4.5 L 12 19.5 L 12 20 L 11.5 20 L 11 20 L 11 19.5 L 11 4.5 L 11 4 z M 6.5 15 L 9.5 15 C 9.777 15 10 15.223 10 15.5 L 10 18.5 C 10 18.777 9.777 19 9.5 19 L 6.5 19 C 6.223 19 6 18.777 6 18.5 L 6 15.5 C 6 15.223 6.223 15 6.5 15 z M 13.5 16 L 16.5 16 C 16.777 16 17 16.223 17 16.5 C 17 16.777 16.777 17 16.5 17 L 13.5 17 C 13.223 17 13 16.777 13 16.5 C 13 16.223 13.223 16 13.5 16 z M 13.5 18 L 16.5 18 C 16.777 18 17 18.223 17 18.5 C 17 18.777 16.777 19 16.5 19 L 13.5 19 C 13.223 19 13 18.777 13 18.5 C 13 18.223 13.223 18 13.5 18 z " />
</svg>

<svg height="24" width="24" xmlns="http://www.w3.org/2000/svg"><path style="color:#000;fill:gray;fill-opacity:1;-inkscape-stroke:none" d="M6.787 3c-.677.006-1.25.048-1.76.303-.34.17-.63.462-.797.838C4.064 4.516 4 4.958 4 5.5v13c0 .542.064.984.23 1.36.167.375.458.668.797.837.68.34 1.473.303 2.473.303h8c1 0 1.794.037 2.473-.303.34-.17.63-.462.797-.838.166-.375.23-.817.23-1.359v-13c0-.542-.064-.984-.23-1.36a1.72 1.72 0 0 0-.797-.837C17.293 2.963 16.5 3 15.5 3h-8c-.25 0-.487-.002-.713 0zM11 4h1v16h-1V4zM6.5 15h3c.277 0 .5.223.5.5v3c0 .277-.223.5-.5.5h-3a.499.499 0 0 1-.5-.5v-3c0-.277.223-.5.5-.5zm7 1h3a.499.499 0 1 1 0 1h-3a.499.499 0 1 1 0-1zm0 2h3a.499.499 0 1 1 0 1h-3a.499.499 0 1 1 0-1z"/></svg>
